X:1
T:Believe in
T:Believe in
T:Yuuki Aira
T:Pascal Bendler
C:Yuuki Aira
Z:Pascal Bendler
%%score { ( 1 2 ) | ( 3 4 ) }
L:1/8
Q:1/4=110
M:4/4
K:Ab
V:1 treble nm="Piano" snm="Pno."
V:2 treble 
V:3 bass 
V:4 bass 
V:1
"^\n"!8vb(! F,A, E2- E4!8vb)! | [FGB]6 D2 | G,A, E2- E x3 | [FGAc]8 | %4
!8vb(! F,A,E-[B,E] [GBce]4!8vb)! | [AB-d-f-]4 [Bdf]4 | GACG [Bfa]4 | !fermata![EGABe]8 | %8
 A-[A,A][EA] A2 [EA]2 E- | E4- EFGA | [C-G][CA][CE][E-G] E F2 [A,B,CG]- | [A,B,CG]4 z2 [EF]2 | %12
 A-[A,A][EA] A2 B2 A- | A z2 E EDCB, | [CAe]f[EGc] [EG]2 [CFc]2 [A,B,FA]- | %15
 [A,B,FA]4 [EG]-[CE-G-][B,E-G-][A,EG] | [DF]2 [FA] [EFA]2 [CF]2 [DA]- | [DA] [FB]2 [ABe]4- [ABe] | %18
[M:2/4] z e ba |[M:4/4] [Aec']2 [eac']2 [ceac'][Aeb][Ba][egb]- | [egb]3 e [Bd-f]2 [GBdg]2 | %21
 [Acfa]2 [ca]2 [ca]gb[cfa]- | [cfa][Be] [Be]2 [A,D]2 ed | [CA-c-]2 [Ac]c [eg]2 [cea]2 | %24
 [EB-e-]2 [Be][Be] [ceg]2 [da]2 | [Bfb]2 [Aea] [Afa]2 [Beg]2 [Afa]- | [Afa]-[Af-a-] [fa]2 z eba | %27
 [Aec']2 [eac']2 [eac'][Ab][Ba][egb]- | [egb]3 e [Bd-f]2 [FBdg]2 | [Acfa]2 [cfa]2 [cea]gb[GBa]- | %30
 [GBa]3 [Ac]3 z a | [Ace]3 g [Aceg]2 Ee | [Ae]2 d2 [Gc]3 B | [CEA] [Ge]2 [Be]4- [Be] | %34
!8va(! !arpeggio![abe'b']4!8va)! dc A2 |!8va(! [aa'] [gg']2 [ff']2 [ee']2 [A-ca] | %36
 [ABb] [cc']2 [=dfc']4- [dfc'] | [Bb][cc'-][cc'] [cec']2 [cgc']2 [Be] | [Befb]3 B AG E2!8va)! | %39
 [Aa-][ea]a a2 e2 e- | e z2 A B2 c2 | [EAc]2 e [ABe]2 f2 [B,EGc-] | cac'b ag [Fe]2 | %43
 [Aa]/a/e [Aa] [Ae]2 [Bb]2 A- | A z2 e e[Ad-]/[Gd]/ [Ec][B,B] | [Fc]2 [Ee] [Ae]2 [Bf]2 [A,Ec]- | %46
 [A,Ec]4 [EB]c[Bf][Ag] | [Fda]2 [Ae] [Aa]2 [FB]2 [Ae]- | [Ae] [Ba]2 [cb]4- [cb] | %49
!f! [A,B,C]2 [Ec]2 [Ae]2 [FB]2 | [EGc]2- [EGBc]2 [GB-e-]2 [EBe]2 | [DFA]2 [Ec]2 [Ae]2 [Gg]2 | %52
 [Aca]2 [Gg]2 [EGe]2 [CB]2 | [B,A]2 [CG]2 [A,EA]2 A2 | [DFB]2 A B2 cA[Bd] | [Ec]2 AA F c2 G,/A,/ | %56
 [B,GB]8 |!8vb(! [F,A,]2!8vb)! [ca]a [ea]2 ea- | [e-a] [ea]2 g [ca]2 [Be]2 | %59
 [CEA]2 [ca]g [ca]2 e[cac']- | [cac'] b2 a [Begb]4 | [A,DA]2 [Aa][Aa] [Afa]2 e[da]- | %62
 [da][Aa-][Aa][Bb] [Aea]2 [ef]2 | [CFAc]4 [ce][Ac][ce][Bf]- | [Bf]4 e4 | %65
!8va(! !arpeggio!!fermata![abe'b']4!8va)! z EBA | c2 c2 cBAB- | B2 z E F2 G2 | A2 A2 AGBA- | %69
 AE E4 ED | [CE]3 z G2 A2 | [EA]3 [EB-] [GB]2 [GA]2 | [CBe-]2 [Ae] [Af]2 [Ge]2 [B,Ae]- | %73
 [B,Ae]4 z [Bea]/ z/ [Bea]/ z/ [Bea]/ z/ | [Bea] z4 [Ee][Bb][Aa] | %75
 [Aec']2 [eac']2 [ceac'][Aeb][Ba][egb]- | [egb]3 [Be] [Bd-f]2 [GBdg]2 | %77
 [Acfa]2 [ca]2 [Aa][cg][Bb][Afa]- | [Afa][Ade] [Ade]2 [A,D]2 [ee'][dd'] | %79
 [cea]3 [Ec] [eg]2 [Afa]2 | [EBe]3 [Ee] [Gdg]2 [Aca]2 | [Bfb]2 [Aea] [Afa]2 [Beg]2 [Afa]- | %82
 [Afa]4 z eba | [Aec']2 [eac']2 [eac']b[Ba][cgb]- | [cgb]2 Be [Ff]2 [Gg]2 | %85
 [Acfa]2 [cfa]2 [cea]gb[GBfa]- | [GBfa]3 [FA]3 z a | [Ace]3 g [Aceg]2 Ee | [Ae]2 d2 [Gc]3 B | %89
 [CEA] [Ge]2 [Be]4- [Be] |!8va(! !arpeggio![abe'b']4!8va)! DC A,2 | [F,C] A,2 E4- E- | %92
 E A,2 E4- E | F A2 e2 A2- A |!8va(! !arpeggio![ABeb]8!8va)! | [DFAd]8 |] %96
V:2
!8vb(! x4 [DAc]4!8vb)! | x8 | x4 [FA]- [FA]3 | x8 |!8vb(! x8!8vb)! | x8 | x8 | x8 | x8 | x8 | x8 | %11
 x8 | x8 | x8 | x8 | x8 | x8 | x8 |[M:2/4] x4 |[M:4/4] x8 | x8 | x8 | x8 | x8 | x8 | x8 | x8 | x8 | %28
 x8 | x8 | x8 | x8 | x8 | x8 |!8va(! x4!8va)! x4 |!8va(! x8 | x8 | x8 | x8!8va)! | x8 | x8 | x8 | %42
 x8 | x8 | x8 | x8 | x8 | x8 | x8 | x8 | x8 | x8 | x8 | x8 | x8 | x8 | x8 |!8vb(! x2!8vb)! x6 | %58
 x8 | x8 | x8 | x8 | x8 | x8 | x8 |!8va(! x4!8va)! x4 | x8 | x8 | [A,B,E]8 | [F,B,C]8 | x8 | x8 | %72
 x8 | x8 | x8 | x8 | x8 | x8 | x8 | x8 | x8 | x8 | x8 | x8 | x8 | x8 | x8 | x8 | x8 | x8 | %90
!8va(! x4!8va)! x4 | x8 | x8 | x8 |!8va(! x8!8va)! | x8 |] %96
V:3
!ped! D,,A,,D,[F,G,] A,2 A,2-!ped-up! |!ped! A,8!ped-up! |!ped! F,,C,F,G, A, E3!ped-up! | %3
!ped! B,4 C4!ped-up! |!ped! D,,A,,D,[F,G,] [A,C-E-]2 [F,-CE]2!ped-up! | %5
!ped! [F,E]4!8va(! A4!ped-up!!8va)! |!ped! F,,C, F,2!8va(! A!8va)! C3!ped-up! | [E,,B,,]8 | %8
!ped! [D,,F,]A,,D,G, A,2 z C-!ped-up! |!ped! C3 A, B,2 C2!ped-up! | %10
!ped! F,,C,F, A,2 [C,F,]2 [E,,B,,E,]-!ped-up! |!ped! [E,,B,,E,]8!ped-up! | %12
!ped! [D,,F,]A,,D,F, A,EG,C-!ped-up! |!ped! C4 [B,-CF-A-]2 [B,FA]2!ped-up! | %14
!ped! F,,C,F, A,2 [C,F,A,]2 [E,,B,,E,]-!ped-up! |!ped! [E,,B,,E,]8!ped-up! | %16
!ped! [D,A,]3 [C,G,B,]2 C,2 [B,,A,]-!ped-up! |!ped! [B,,A,] [B,,F,B,]2 [E,G,C]4- [E,G,C]!ped-up! | %18
[M:2/4]!ped! z4!ped-up! |[M:4/4]!ped! [A,,,A,,]A, [CA]2 [A,E]E,A,[E,,B,,G,]-!ped-up! | %20
!ped! [E,,B,,G,]B,,[G,B,]E, [B,E]E, [G,B,]2!ped-up! | %21
!ped! [F,,,F,,]C, [F,C]2 [F,C]2 [F,A,][D,,A,,D,]- | [D,,A,,D,-]D,A,B, F,D,[A,C]D!ped-up! | %23
!ped! [A,,A,]E, [A,CE]2 [CEA]2 A,E,!ped-up! |!ped! [B,,F,]CE A2 C B,2!ped-up! | %25
!ped! [C,,C,]C,CE, A, B,2 [D,F,C]-!ped-up! |!ped! [D,F,C]!8va(!EAB eFDC!ped-up!!8va)! | %27
!ped! [A,,,A,,]E,[A,E]C [EA]A,C[E,,B,,E,]- | [E,,B,,E,]E,G,B, G,E,B,E,!ped-up! | %29
!ped! [F,,,F,,]C,[F,C]C, [F,C]CE[D,,A,,D,]- | [D,,A,,D,]D,F, [D,A,]2 D,F,A,!ped-up! | %31
!ped! [A,,E,]4 [A,,A,]2 [A,,G,]2!ped-up! | %32
!ped! [B,,-C]2 [B,,-D]2 [B,,E-]2 [B,,-B,-E][B,,B,]!ped-up! | %33
!ped! [C,,C,] [E,A,]2 [A,C]4- [A,C]!ped-up! | z8 |!ped! [A,,A,]4 [F,B,]4!ped-up! | %36
!ped! [B,,,B,,] [D,G,]2 [F,,=D,A,]4- [F,,D,A,]!ped-up! |!ped! CB,C F2 E2 B,!ped-up! | %38
!ped! [E,,-B,,] [E,,C,]2 B,,4 [C,,,C,,]!ped-up! | %39
!ped! [D,,,D,,]3!8va(! e' !trill(!Te'15/4 f'/4!ped-up! | %40
!ped! g'2!8va)!!8va(! E2 F2 E2!ped-up!!8va)! |!ped! [F,,C,F,]3 [F,CE]4 [E,,B,,E,]- | %42
 [E,,B,,E,]4 A,,4!ped-up! |!ped! [D,,,D,,]2 A,, E,2 z2!8va(! b/e'/!ped-up! | %44
!ped! b'2!8va)! z4 D,2!ped-up! |!ped! [F,,,F,,]2 C, F,2 G,2 [E,,B,,E,]- | [E,,B,,E,]4 G,4!ped-up! | %47
!ped! [D,,D,]3 [C,,C,]2 [C,,C,]2 [B,,,B,,]- | %48
 [B,,,B,,] [B,,,B,,]2!ped-up! z!ped!!<(! !trill(!TE,,,15/4 E,,/4!ped-up!!<)! | %49
!ped! [A,,,A,,]E,A,E [A,,A,]2 B,2!ped-up! |!ped! [E,,G,]B,,E,G, [E,B,]2 E,2!ped-up! | %51
!ped! [B,,,B,,]E,A,C [F,A,]2 B,2!ped-up! |!ped! [A,,C]E,A,E [G,,E,]2 G,2!ped-up! | %53
!ped! [F,,F,]C,F,A, C2 C,2!ped-up! |!ped! D,,D,A,D E2 D,2!ped-up! | %55
!ped! A,,E,A,E, A,2 A,,2!ped-up! |!ped! E,,E,G,B, E,4!ped-up! | %57
!ped! [D,,D,]2 D,A, [DA]2 [D,A,]2-!ped-up! |!ped! [D,A,]8!ped-up! | %59
!ped! [A,,A,]E,C[E,B,] C2 E[A,EA]-!ped-up! |!ped! [A,EA] C2 E [G,B,]E,G,[E,,E,]!ped-up! | %61
!ped! [D,,D,]2 [F,A,]D, [F,B,]3 [D,A,D]-!ped-up! |!ped! [D,A,D]2 C2 B,2 E2!ped-up! | %63
!ped! [F,,C,F,]4 A,3 [E,,B,,E,]-!ped-up! |!ped! [E,,B,,E,]4 z4!ped-up! | %65
!8va(!!ped! [Be]8!8va)!!ped-up! |!ped! [A,,E,A,]8!ped-up! |!ped! [E,,B,,F,G,]4 [G,B,E]4!ped-up! | %68
!ped! [F,,C,F,]8!ped-up! |!ped! [D,,A,,D,]8!ped-up! |!ped! [B,,,B,,]F,B, D3 B,2!ped-up! | %71
!ped! [C,,C,]E,A, B,3 B,C!ped-up! |!ped! [D,,D,]A,C E2 C2 [E,,E,]-!ped-up! | %73
 [E,,E,]4 z [E,,B,,E,]/ z/ [E,,B,,E,]/ z/ [E,,B,,E,]/ z/ | %74
!ped! [E,,B,,E,] z4 z!8vb(!!<(! E,,,/4E,,/4E,,,/4E,,/4E,,,/4E,,/4E,,,/4E,,/4!ped-up!!8vb)!!<)! | %75
!ped! [A,,,A,,]E, [A,C]2 [A,E]E,A,[E,,B,,G,]-!ped-up! | %76
!ped! [E,,B,,G,]B,,E,G, [B,E]2 [G,B,]E,!ped-up! | %77
!ped! [F,,,F,,]C,[F,C]C, [F,C]2 [F,A,][D,,A,,D,]-!ped-up! | %78
!ped! [D,,A,,D,]D,A,B, F,D,[A,C]D!ped-up! |!ped! [A,,C]E,[A,C]E, [EA]2 [A,C]E,!ped-up! | %80
!ped! [B,,F,]CD A2 CDC!ped-up! |!ped! [C,,C,]E,A,C A, B,2 [D,F,C]-!ped-up! | %82
!ped! [D,F,C]EAB eE A,2!ped-up! |!ped! [A,,,A,,]E,[A,E]E, [A,E]AB,[E,,B,,G,]-!ped-up! | %84
!ped! [E,,B,,G,]E,G,B, [G,E]E,B,E,!ped-up! | %85
!ped! [F,,,F,,]C,[F,C]C, [F,A,][C,C][F,E][D,,A,,D,]-!ped-up! | %86
!ped! [D,,A,,D,]A,,D, F,2 D, F,2!ped-up! |!ped! [A,,E,]4 A,2 G,2!ped-up! | %88
!ped! [B,,F,C]2 D2 E2 [B,,B,]2!ped-up! |!ped! C,,C,E, A,4- A,!ped-up! |!ped! z8!ped-up! | %91
!ped! D,,A,,D, F,4- F,-!ped-up! |!ped! F,8!ped-up! |!ped! D,A,D F4- F!ped-up! | [A,,,A,,]8 | %95
!8vb(! [D,,,D,,]8!8vb)! |] %96
V:4
 x8 | x8 | z2 z2 z2 A, z | x8 | x8 | x4!8va(! x4!8va)! | x4!8va(! x!8va)! x3 | x8 | x8 | x8 | x8 | %11
 x8 | x8 | x8 | x8 | x8 | x8 | x8 |[M:2/4] x4 |[M:4/4] x8 | x8 | x8 | x8 | x8 | x8 | x8 | %26
 x!8va(! x7!8va)! | x8 | x8 | x8 | x8 | x8 | x8 | x8 | x8 | x8 | x8 | F,,8 | x8 | x3!8va(! x5 | %40
 x2!8va)!!8va(! x6!8va)! | x8 | x8 | x7!8va(! x | x2!8va)! x6 | x8 | x8 | x8 | x8 | x8 | x8 | x8 | %52
 x8 | x8 | x8 | x8 | x8 | x8 | x8 | x8 | x8 | x8 | x8 | x8 | x8 |!8va(! x8!8va)! | x8 | x8 | x8 | %69
 x8 | x8 | x8 | x8 | x8 | x6!8vb(! x2!8vb)! | x8 | x8 | x8 | x8 | x8 | x8 | x8 | x8 | x8 | x8 | %85
 x8 | x8 | x8 | x8 | x8 | x8 | x8 | x8 | x8 | x8 |!8vb(! x8!8vb)! |] %96

